X: 52
T:Proudlocks's Variation
% Nottingham Music Database
S:Reading
M:4/4
L:1/8
R:Hornpipe
K:G
P:A
D2|"G"(3GED(3GAB "D7"(3AFD(3ABA|"G"(3GBd(3gfg "C"(3agf(3edc|
"G"(3Bcd(3BAG "D7"(3ABc(3AGF|"G"(3GFG(3AGF "D7"(3GFE(3DEF|
"G"(3GED(3GAB "D7"(3AFD(3ABA|"G"(3GBd(3gfg "C"(3agf(3edc|
"G"(3Bcd(3BAG "D7"(3ABc(3AGF|"G"(3GFE(3DEF (3GDB:|
P:B
Bc|"G"(3d^cd(3edc "Em"(3Bcd(3GAB|"Am"(3cBc(3dcB "D7"(3AGF(3DBc|
"G"(3d^cd(3edc "Em"(3Bcd(3GAB|"A7"(3A^ce(3a_ag "D7"(3fed(3cBA|
"G"(3GED(3GAB "D7"(3AFD(3ABA|"G"(3GBd(3gfg "C"(3agf(3edc|
"G"(3Bcd(3BAG "D7"(3ABc(3AGF|"G"(3GFE(3DEF (3GDB:|G2


